src/images/icon/icon_label_tips.svg

<svg height="20" viewBox="0 0 20 20" width="20" xmlns="http://www.w3.org/2000/svg"><g fill="none"><path d="m9.99997494 2c-4.41828632 0-7.99997494 3.58170882-7.99997494 7.99997494 0 4.41828286 3.58167191 8.00002506 7.99995824 8.00002506 4.41836986 0 8.00004176-3.5817422 8.00004176-8 0-4.41825777-3.5816385-8-8.00002506-8z" fill="#0080ff"/><path d="m10.5999582 13.0162554c.2209478 0 .3999979.1790821.3999979.4000614v1.1999503c0 .2209125-.1790334.4000447-.3999979.4000447h-1.1999937c-.2208642 0-.3999645-.1791155-.3999645-.400028v-1.199967c0-.2209626.1790836-.4000614.3999645-.4000614zm0-8.01764926c.2209478 0 .3999979.1790821.3999979.40006139v5.60300737c0 .2209125-.1790334.4000447-.3999979.4000447h-1.1999937c-.2208642 0-.3999645-.1791155-.3999645-.400028v-5.60302407c0-.22096258.1790836-.40006139.3999645-.40006139z" fill="#fff" transform="matrix(-1 0 0 -1 19.999956 20.014918)"/></g></svg>

<?xml version="1.0" encoding="UTF-8"?>
<svg width="20px" height="20px" viewBox="0 0 20 20" version="1.1" xmlns="http://www.w3.org/2000/svg" xmlns:xlink="http://www.w3.org/1999/xlink">
    <title>8596F61C-188D-461B-A57D-06A0235F7003@1x</title>
    <g id="Dashboard" stroke="none" stroke-width="1" fill="none" fill-rule="evenodd">
        <g id="21-开发环境-创建环境-创建共享开发环境-创建成功提示复制弹窗" transform="translate(-541.000000, -97.000000)" fill-rule="nonzero">
            <g id="Modal/Confirm备份-3" transform="translate(520.000000, 72.000000)">
                <g id="Status-Icon" transform="translate(16.000000, 20.000000)">
                    <g id="疑问备份" transform="translate(5.000000, 5.000000)">
                        <path d="M9.99997494,2 C5.58168862,2 2,5.58170882 2,9.99997494 C2,14.4182578 5.58167191,18 9.99995824,18 C14.4183281,18 18,14.4182578 18,10 C18,5.58174223 14.4183615,2 9.99997494,2 Z" id="形状" fill="#0080FF"></path>
                        <path d="M10.5999582,13.0162554 C10.820906,13.0162554 10.9999561,13.1953375 10.9999561,13.4163168 L10.9999561,14.6162671 C10.9999561,14.8371796 10.8209227,15.0163118 10.5999582,15.0163118 L9.3999645,15.0163118 C9.1791003,15.0163118 9,14.8371963 9,14.6162838 L9,13.4163168 C9,13.1953542 9.1790836,13.0162554 9.3999645,13.0162554 L10.5999582,13.0162554 Z M10.5999582,4.99860614 C10.820906,4.99860614 10.9999561,5.17768824 10.9999561,5.39866753 L10.9999561,11.0016749 C10.9999561,11.2225874 10.8209227,11.4017196 10.5999582,11.4017196 L9.3999645,11.4017196 C9.1791003,11.4017196 9,11.2226041 9,11.0016916 L9,5.39866753 C9,5.17770495 9.1790836,4.99860614 9.3999645,4.99860614 L10.5999582,4.99860614 Z" id="形状结合" fill="#FFFFFF" transform="translate(9.999978, 10.007459) rotate(-180.000000) translate(-9.999978, -10.007459) "></path>
                    </g>
                </g>
            </g>
        </g>
    </g>
</svg>
